img/refresh.svg

<svg fill="none" height="800" viewBox="0 0 24 24" width="800" xmlns="http://www.w3.org/2000/svg">
    <path d="m18.2577 3.50828c.2803.11609.463.38957.463.69291v4.24264c0 .41422-.3358.75-.75.75h-4.2427c-.3033 0-.5768-.18273-.6929-.46298-.116-.28026-.0519-.60285.1626-.81735l1.603-1.603c-2.6333-1.10138-5.78464-.5796-7.92722 1.56298-2.83131 2.83132-2.83131 7.42172 0 10.25302 2.8313 2.8313 7.42172 2.8313 10.25302 0 1.6462-1.6462 2.3357-3.8864 2.067-6.0328-.0515-.411.24-.7859.651-.8374.411-.0514.7859.24.8374.651.3238 2.5861-.5073 5.2924-2.4947 7.2799-3.4171 3.4171-8.9573 3.4171-12.37438 0-3.41709-3.4171-3.41709-8.9573 0-12.37438 2.73837-2.73838 6.83868-3.28162 10.11808-1.63254l1.5095-1.50942c.2145-.21449.537-.27866.8173-.16258z"
          fill="#ffffff"/>
</svg>

<?xml version="1.0" encoding="utf-8"?><!-- Uploaded to: SVG Repo, www.svgrepo.com, Generator: SVG Repo Mixer Tools -->
<svg width="800px" height="800px" viewBox="0 0 24 24" fill="none" xmlns="http://www.w3.org/2000/svg">
    <path d="M18.2577 3.50828C18.538 3.62437 18.7207 3.89785 18.7207 4.20119V8.44383C18.7207 8.85805 18.3849 9.19383 17.9707 9.19383H13.728C13.4247 9.19383 13.1512 9.0111 13.0351 8.73085C12.9191 8.45059 12.9832 8.128 13.1977 7.9135L14.8007 6.3105C12.1674 5.20912 9.01606 5.7309 6.87348 7.87348C4.04217 10.7048 4.04217 15.2952 6.87348 18.1265C9.70478 20.9578 14.2952 20.9578 17.1265 18.1265C18.7727 16.4803 19.4622 14.2401 19.1935 12.0937C19.142 11.6827 19.4335 11.3078 19.8445 11.2563C20.2555 11.2049 20.6304 11.4963 20.6819 11.9073C21.0057 14.4934 20.1746 17.1997 18.1872 19.1872C14.7701 22.6043 9.2299 22.6043 5.81282 19.1872C2.39573 15.7701 2.39573 10.2299 5.81282 6.81282C8.55119 4.07444 12.6515 3.5312 15.9309 5.18028L17.4404 3.67086C17.6549 3.45637 17.9774 3.3922 18.2577 3.50828Z"
          fill="#FFFFFF"/>
</svg>
